X:704
%%etbk:tnset id:433,pos:1,rep:3x,ant:
%%etbk:wsite https://thesession.org/tunes/1175
%%etbk:video src:ytube,cde:C2IiXBx6EGo,desc:13 min
%%etbk:pldat 2016-09-17T15:44,2016-09-16T17:12,2016-09-13T17:26,2016-09-04T11:19,2016-09-03T10:10,2016-08-21T11:44,2016-08-04T18:59,2016-07-31T16:51,2016-07-23T17:00,2016-07-22T15:56,2016-07-19T21:01,2016-06-12T15:04,2016-05-25T16:08,2016-05-24T16:21,2016-05-23T18:38,2015-08-13T19:03,2015-07-19T15:38,2015-07-17T09:56,2015-07-15T16:50,2015-07-07T09:27,2015-06-17T17:50,2015-06-09T18:05,2015-06-05T17:40,2015-05-27T18:10,2015-05-26T19:04,2015-05-25T16:15,2015-05-10T11:49,2015-05-06T16:59,2015-05-05T17:02,2015-04-28T21:50
T: Donald Blue
Z: Piano Box Version by Martin Fleischmann
H: Created 2015-04-28 /  Last Modified 2016-07-23
R: reel
M: 4/4
L: 1/8
K: Dmaj
|:"D-Drone""D"!5!dBA!2!F !3!A2 FA|!5!dBAF !1!EF !1!D!3!A|!5!dBAF A2 F!3!A|1"A"!3!A!4!BBA B2 AB:|2"A"!3!A!4!B!2!BA B2 dB||
|:"D"!1!ABd!4!e !3!f!5!a a2|"G"!4!g2 f!1!d e!1!d !2!(3Bcd|"D"!1!ABde !5!f2 ed|1"A"!1!ABBA B2 dB:|2"A"!1!ABB!1!A !4!B2 AB||


